X:1
T:Title
%%score { ( 1 3 ) | ( 2 4 ) }
L:1/8
M:9/8
K:C
V:1 treble nm="Grand Piano"
V:3 treble 
V:2 bass 
V:4 bass 
V:1
 z3 z3[Q:1/4=90] [EG][FA][FG] | z3 z3 z2 A | [EG]6 GAB | z3 z3 .c3 | d6 GAG | z3 z3 .[Gc]3 | %6
 A3- A2 [Ac] cBA | z3 z3 .B3 |[M:3/4] [Ec]6 |] %9
V:2
 z3 z3 [C,C][G,B,][G,B,] | z3 z3 .[A,C]3 | [C,C]6[K:treble] [G,B,F][G,DF][G,DF] | %3
 [C,C]3- [C,C]2 [E,D] .[D,A,]2 [D,A,] | [G,B,F]6 [G,B,F][G,CF][G,B,F] | %5
 [C,C]3- [C,C]2 [D,B,] z E[E,CE] | [F,CF]3- [F,CF]2 [F,C] [^F,_E^F][F,EF][F,CE] | %7
 [G,CE]3- [G,CE]2 [E,C] [D,G,][G,,A,][G,,B,F] |[M:3/4] [C,G,]6 |] %9
V:3
 x9 | [Ec]3- [Ec]2 E F.G>_E | x9 | [Ec]3- [Ec]2 [Gc] ^F-[DFB][Fc] | x9 | %5
 [Ge]3- [Ge]2 [Gd] C-[CG]^G | x9 | G3- G2 [Gc] F-[Fc]d |[M:3/4] x6 |] %9
V:4
 x9 | [C,G,]3- [C,G,]2 [C,G,C] F,-[F,CE].[F,CF] | x6[K:treble] x3 | x9 | x9 | z3 z3 .E,3 | x9 | %7
 x9 |[M:3/4] x6 |] %9

